X:1
T:Be with Us Still
T:Charles Hutchinson Gabriel
T:Be with Us Still
T:Public Domain
T:Public Domain
T:Public Domain
C:Charles Hutchinson Gabriel
Z:Public Domain
%%score ( 1 2 ) ( 3 4 )
L:1/8
M:3/4
K:Bb
V:1 treble-8 
V:2 treble-8 
V:3 bass 
V:4 bass 
V:1
 F[FB] [Fc] | [Bd]3 [Bd] [Bc][=Bd] | [ce]3 [ce] [ce][ce] | [Ae][Ae] [Ad]2 [Ac]2 | %4
w: 1.~God of all|our fa- thers’ God,|This land we love|be- longs to Thee,|
w: 2.~In free- dom’s|our fa- thers fought|And crossed the wild|and storm- y deep;|
w: 3.~By greed of|or lust of gain|May we be tempt-|ed nev- er- more!|
w: 4.~If for an|pire we will seek|Still o- ther lands|be- yond the sea,|
 [Bd]3 F [FB][Ac] | [Bd]3 [Bd] [Bc][=Bd] | [ce]3 [B=e] [Be][Be] | [Bf][=Bf] [cf]2 [c=e]2 | %8
w: From shores the pil-|feet first trod, Far|west- ward stretch- ing|to the sea; Lest|
w: The price- less boon|here they bought, May|we, their child- ren,|ev- er keep; That|
w: For- bid, O Lord,|we should stain Fair|free- dom’s flag with|hu- man gore For|
w: We’ll wait, O Lord,|Thou dost speak, For|Thou wouldst have all|peo- ple free; O|
 [cf]4 z | f ||[M:4/4] e'[bd'](aa a)[^g=b][ac'][gb] | [ac']ff'[c'e'] (bbb)[b^c'] | %12
w: in|our|van- i- ty * * and pride We|to do Thy right- eous * * will,|
w: as|a|na- tion strong * * we may Our|est des- ti- ny ful- * * fill,|
w: sake|of|con- quest; ra- * * ther, let Christ’s|der love our bo- soms * * fill;|
w: let|us|not, in free- * * dom’s name, Go|to pil- lage, burn and * * kill;|
 [bd'][b^c'][bd']b (z e'e')[bf'] | [ae'][bd']c'[bc'] [c'f']fa[ac'] |[M:3/4] (c'c' c')f a[c'e'] | %15
w: from the right now * * turn|* side, * * * * * *||
w: fool- ish- ly go * * far|* stray. Be with us still! Be with|still! * * God of all|
w: in our fol- ly * * we|* get, * * * * * *||
w: for such deeds we * * blush|* shame. * * * * * *||
 (bb b)[d'f'] [e'f'][c'f'] | [bf'][be'] [bd']2 (af) | [fb]3 |] %18
w: |||
w: be * * with us still!|||
w: |||
w: |||
V:2
 F x2 | x6 | x6 | x6 | x3 F x2 | x6 | x6 | x6 | x5 | x ||[M:4/4] x2 c'3 x3 | x4 d'3 x | x4 g'3 x | %13
w: might,||||grims’||||||cease|And|a-|
w: cause||||which||||||high-|Nor|a-|
w: power||||that||||||ten-|Lest|for-|
w: em-||||till||||||forth|Lest|with|
 x2 c' x5 |[M:3/4] e'3 x3 | d'3 x3 | x4 c'2 | x3 |] %18
w: |||||
w: us|might||||
w: |||||
w: |||||
V:3
 [B,,D,][B,,D,] [B,,E,] | [B,,F,]3 [B,,F,] [E,G,][D,G,] | [C,G,]3 [B,,_G,] [A,,F,][_G,,F,] | %3
w: ~ ~ ~|~ ~ ~ ~|~ ~ ~ ~|
 [F,,F,][F,,G,] [F,,F,]2 [F,,F,]2 | [B,,F,]3 [E,F,] [D,F,][C,F,] | [B,,F,]3 [B,,F,] [E,G,][D,G,] | %6
w: ~ ~ ~ ~|~ ~ ~ ~|~ ~ ~ ~|
 [C,G,]3 [^C,G,] [C,G,][C,G,] | [D,B,][_D,^G,] [C,A,]2 [C,B,]2 | [F,,A,]4 z | z || %10
w: ~ ~ ~ ~|~ ~ ~ ~|~||
[M:4/4] z [F,,F,]([F,,F,][F,,F,] [F,,E,])[F,,D,][F,,E,][F,,D,] | %11
w: ~ ~ * * ~ ~ ~|
 [F,,E,] z2 [F,,A,] ([B,,F,][B,,F,][B,,F,])[B,,=E,] | %12
w: ~ ~ ~ * * ~|
 [B,,F,][B,,=E,][B,,F,] z2 ([_E,B,][E,B,])[D,B,] | [C,F,][B,,F,][A,,F,][G,,=E,] [F,,A,] z2 F, | %14
w: ~ ~ ~ ~ * ~|~ ~ ~ ~ ~ Be|
[M:3/4] [F,A,][F,A,] [F,A,] z2 [F,,A,] | [B,,F,][B,,F,] [B,,F,][=B,,^G,] [C,A,][E,A,] | %16
w: us still! Be with|us still! * * * *|
 [D,_A,][E,G,] F,2 [F,,E,]2 | [B,,D,]3 |] %18
w: ||
V:4
 x3 | x6 | x6 | x6 | x6 | x6 | x6 | x6 | x5 | x ||[M:4/4] x8 | x8 | x8 | x7 F, |[M:3/4] x6 | x6 | %16
w: |||||||||||||with|||
 x2 F,2 x2 | x3 |] %18
w: ||

